X:1
T:Rochdale Coconut Dance
M:4/4
L:1/8
H:Used for a stationary coconut dance during the Rochdale Rushcart procession in the mid 19thC
B:JEFDS-1927 Gilchrist,A. The Lancashire Rush-Cart and Morris-Dance
S:John Adams tradtunes 2008-2-18
K:G
|:\
G2BB G2B2 | AGFG A2dd | G2BB G2B2 | AGFE D2d2 |\
G2BB G2B2 | AGFG A2dd | BdcB AcBA | G2F2 G2F2 :|
|:\
EFGF E2B2 | EFGF E2B2 | c2Ac B2G2 | AGFE D4 |\
EFGF E2B2 | EFGF E2B2 | c2Ac B2G2 | A2F2 G4 :|
